X: 194
T: Rugged Road
B: canberra pickers and fiddlers
B: old time tunes update
B: tunes
M:C|
L:1/8
Q: 1/4=100
K:G
V:1 
|:Bd2d dedc|BABd B2G2|[GB]-[G2c2][GB]- [Gc]ded|cBAB A2G2|
Bd2d dedc|BABd B2G2|cBAG FDEF|1G2 ([GA]<[G2B2])[G4B4]:|2G2 ([GA]<[G2B2])[G2B2]Bc||
|:dedc B2[B2g2]|efed c2a2|fafe ddef|gabg d2Bc|
dedc B2[B2g2]|efed c2a2|fafe d2ef|1 [Bg][Bf][Bg][Ba] [B4g4]:|]
% abcbook-tune_id 67a7d9ec437e70847eee449e
% abcbook-tune_composer_id 
% abcbook-link-0 https://www.youtube.com/watch?v=Cl4KrMmhCtg
% abcbook-link-title-0 RUGGED ROAD Nadine Landry &amp; Sammy Lind
% abcbook-boost 0
% abcbook-difficulty 0
% abcbook-tags old time tunes
% abcbook-tablature 
% abcbook-transpose 
% abcbook-tuning GDAD
% abcbook-lastupdated 1739220625685
% abcbook-src-url 
% abcbook-soundfonts 
% abcbook-repeats 1


